X: 24
T: Kesh, The
Z: Aaron Bergen
S: https://thesession.org/tunes/55#setting47264
R: jig
M: 6/8
L: 1/8
K: Gmaj
|:"G"G3 GAB|"D"A3 ABd|"C"edd gdd|edB "D"dBA|
"G"G3 GAB|"D"A3 ABd|"C"edd gdd|"D"BAF "G"G3:|
|:"G"B2B dBd|"C"ege dBA|"G"B2B dBG|"D"A2 A AGA|
"G"B2B dBd|"C"ege dBd|"Am"gfg aga|"D"bgf "G"g3:|

